X:13198
T:Plante un chou
R:Schottische
O:France
M:C
C:Trad.
K:G
B2A2GFGA|c2B2A4|dedc BcBA|1GABcB2G2:|2GABAG4::\
B2B2c3B|AFABG4|A2A2BcBA|G2F2E4|\
EFGEA4|GFGAB4|EFGA BcBA|G2A2B4::\
B2B2e3d|cBAcB4|EFGA BcBA|G2A2B4|\
B2B2e3d|cBAcB4|EFGA BcBA|G2F2E4:|
